src/icons/cd-with-text.svg

<svg width="168" height="56" viewBox="0 0 168 56" fill="none" xmlns="http://www.w3.org/2000/svg">
<rect width="168" height="56" fill="white"/>
<path fill-rule="evenodd" clip-rule="evenodd" d="M49.0332 16.8262C51.0382 17.9614 52.2696 20.0949 52.2498 22.3988L52.1535 33.5671C52.1341 35.8133 50.9279 37.8816 48.9825 39.0045L38.98 44.7779C37.0346 45.9008 34.6403 45.9107 32.6857 44.8039L22.9668 39.3009C20.9618 38.1657 19.7304 36.0322 19.7502 33.7282L19.8465 22.5599C19.8659 20.3138 21.0721 18.2455 23.0175 17.1226L33.02 11.3492C34.9654 10.2263 37.3597 10.2164 39.3143 11.3231L49.0332 16.8262ZM45.497 25.4976C44.9712 27.4796 42.9604 28.6695 40.9947 28.1737L31.6338 25.6414C30.0921 25.224 28.4874 25.4378 27.1085 26.2414C25.7298 27.0448 24.744 28.3408 24.3313 29.8972C23.9181 31.4538 24.1296 33.0789 24.9298 34.4779C25.7299 35.8768 27.0186 36.8742 28.5608 37.2914C30.1025 37.7088 31.7072 37.495 33.0859 36.6916C34.4648 35.888 35.4506 34.5921 35.8633 33.0357L36.1897 31.7278C36.2309 31.5627 36.1324 31.3949 35.9681 31.3505L34.3956 30.9249C34.2266 30.8792 34.0531 30.9811 34.0107 31.1509L33.6916 32.4308C33.1592 34.434 31.1111 35.6268 29.1273 35.0905C27.1494 34.5549 25.9735 32.4991 26.503 30.5023C27.0288 28.5203 29.0399 27.3295 31.0056 27.8252L40.3662 30.3585C41.9079 30.7759 43.5126 30.5621 44.8915 29.7585C46.2702 28.9551 47.256 27.6592 47.6687 26.1028C48.0819 24.5461 47.8704 22.921 47.0702 21.5221C46.2701 20.1231 44.9814 19.1257 43.4392 18.7085C41.8975 18.2911 40.2928 18.5049 38.9141 19.3084C37.5352 20.1119 36.5494 21.4078 36.1367 22.9642L35.8279 23.9982C35.7776 24.1666 35.876 24.3434 36.0457 24.3893L37.6183 24.8149C37.7818 24.8592 37.9508 24.7651 37.9993 24.6028L38.3084 23.5692C38.8408 21.5659 40.8889 20.3731 42.8727 20.9095C44.8506 21.445 46.0265 23.5009 45.497 25.4976Z" fill="url(#paint0_linear)"/>
<path d="M69.7193 19.2536C69.4061 16.9915 67.6661 15.679 65.409 15.679C62.7492 15.679 60.7456 17.618 60.7456 20.9091C60.7456 24.1954 62.7243 26.1393 65.409 26.1393C67.8301 26.1393 69.4359 24.5732 69.7193 22.6293L67.86 22.6194C67.6263 23.8126 66.6519 24.4837 65.4338 24.4837C63.7832 24.4837 62.6 23.2458 62.6 20.9091C62.6 18.6123 63.7733 17.3346 65.4388 17.3346C66.6767 17.3346 67.6462 18.0356 67.86 19.2536H69.7193Z" fill="black"/>
<path d="M74.6598 26.1492C76.8971 26.1492 78.3189 24.5732 78.3189 22.2117C78.3189 19.8452 76.8971 18.2643 74.6598 18.2643C72.4226 18.2643 71.0008 19.8452 71.0008 22.2117C71.0008 24.5732 72.4226 26.1492 74.6598 26.1492ZM74.6698 24.7074C73.4319 24.7074 72.8253 23.6037 72.8253 22.2067C72.8253 20.8097 73.4319 19.6911 74.6698 19.6911C75.8878 19.6911 76.4944 20.8097 76.4944 22.2067C76.4944 23.6037 75.8878 24.7074 74.6698 24.7074Z" fill="black"/>
<path d="M81.6462 21.5256C81.6462 20.4219 82.3124 19.7856 83.2619 19.7856C84.1916 19.7856 84.7484 20.3971 84.7484 21.4162V26.0001H86.5482V21.1378C86.5531 19.3083 85.5091 18.2643 83.9331 18.2643C82.7896 18.2643 82.0041 18.8111 81.6561 19.6613H81.5666V18.3637H79.8465V26.0001H81.6462V21.5256Z" fill="black"/>
<path d="M92.1909 18.3637H90.6845V16.5341H88.8848V18.3637H87.801V19.7557H88.8848V24.0015C88.8749 25.4383 89.9189 26.1442 91.2712 26.1045C91.7832 26.0895 92.1362 25.9901 92.3301 25.9255L92.0269 24.5185C91.9274 24.5434 91.7236 24.5881 91.4999 24.5881C91.0475 24.5881 90.6845 24.429 90.6845 23.7032V19.7557H92.1909V18.3637Z" fill="black"/>
<path d="M93.6961 26.0001H95.4958V18.3637H93.6961V26.0001ZM94.6009 17.2799C95.1726 17.2799 95.64 16.8424 95.64 16.3055C95.64 15.7635 95.1726 15.326 94.6009 15.326C94.0242 15.326 93.5569 15.7635 93.5569 16.3055C93.5569 16.8424 94.0242 17.2799 94.6009 17.2799Z" fill="black"/>
<path d="M99.1462 21.5256C99.1462 20.4219 99.8124 19.7856 100.762 19.7856C101.692 19.7856 102.248 20.3971 102.248 21.4162V26.0001H104.048V21.1378C104.053 19.3083 103.009 18.2643 101.433 18.2643C100.29 18.2643 99.5041 18.8111 99.1561 19.6613H99.0666V18.3637H97.3465V26.0001H99.1462V21.5256Z" fill="black"/>
<path d="M110.745 22.7884C110.745 23.9518 109.915 24.5285 109.119 24.5285C108.254 24.5285 107.677 23.917 107.677 22.9475V18.3637H105.878V23.2259C105.878 25.0604 106.922 26.0995 108.423 26.0995C109.567 26.0995 110.372 25.4979 110.72 24.6428H110.8V26.0001H112.545V18.3637H110.745V22.7884Z" fill="black"/>
<path d="M117.726 26.1492C119.963 26.1492 121.385 24.5732 121.385 22.2117C121.385 19.8452 119.963 18.2643 117.726 18.2643C115.489 18.2643 114.067 19.8452 114.067 22.2117C114.067 24.5732 115.489 26.1492 117.726 26.1492ZM117.736 24.7074C116.498 24.7074 115.892 23.6037 115.892 22.2067C115.892 20.8097 116.498 19.6911 117.736 19.6911C118.954 19.6911 119.561 20.8097 119.561 22.2067C119.561 23.6037 118.954 24.7074 117.736 24.7074Z" fill="black"/>
<path d="M127.78 22.7884C127.78 23.9518 126.95 24.5285 126.154 24.5285C125.289 24.5285 124.713 23.917 124.713 22.9475V18.3637H122.913V23.2259C122.913 25.0604 123.957 26.0995 125.458 26.0995C126.602 26.0995 127.407 25.4979 127.755 24.6428H127.835V26.0001H129.58V18.3637H127.78V22.7884Z" fill="black"/>
<path d="M137.466 20.3822C137.217 19.0895 136.183 18.2643 134.394 18.2643C132.554 18.2643 131.301 19.1691 131.306 20.581C131.301 21.6947 131.987 22.4305 133.454 22.7337L134.756 23.0072C135.457 23.1613 135.786 23.4447 135.786 23.8772C135.786 24.3992 135.219 24.792 134.364 24.792C133.538 24.792 133.001 24.434 132.847 23.7479L131.092 23.917C131.316 25.3189 132.494 26.1492 134.369 26.1492C136.278 26.1492 137.625 25.1599 137.63 23.7131C137.625 22.6243 136.924 21.9582 135.482 21.6449L134.18 21.3665C133.404 21.1925 133.096 20.9241 133.101 20.4816C133.096 19.9645 133.668 19.6066 134.418 19.6066C135.249 19.6066 135.686 20.059 135.825 20.5611L137.466 20.3822Z" fill="black"/>
<path d="M64.4544 41.0001C67.5567 41.0001 69.3962 39.081 69.3962 35.8992C69.3962 32.7273 67.5567 30.8182 64.524 30.8182H61.0041V41.0001H64.4544ZM62.8486 39.4042V32.4141H64.4196C66.4878 32.4141 67.5666 33.5675 67.5666 35.8992C67.5666 38.2408 66.4878 39.4042 64.3649 39.4042H62.8486Z" fill="black"/>
<path d="M74.4498 41.1492C76.2296 41.1492 77.4526 40.2792 77.7708 38.9518L76.0904 38.7628C75.8468 39.4091 75.2502 39.7472 74.4747 39.7472C73.3113 39.7472 72.5407 38.9816 72.5258 37.6741H77.8454V37.1222C77.8454 34.4425 76.2346 33.2643 74.3553 33.2643C72.1678 33.2643 70.741 34.8701 70.741 37.2266C70.741 39.6229 72.1479 41.1492 74.4498 41.1492ZM72.5308 36.461C72.5854 35.4866 73.3063 34.6662 74.3802 34.6662C75.4143 34.6662 76.1103 35.4219 76.1203 36.461H72.5308Z" fill="black"/>
<path d="M81.1677 30.8182H79.3679V41.0001H81.1677V30.8182Z" fill="black"/>
<path d="M83.0183 41.0001H84.818V33.3637H83.0183V41.0001ZM83.9232 32.2799C84.4949 32.2799 84.9622 31.8424 84.9622 31.3055C84.9622 30.7635 84.4949 30.326 83.9232 30.326C83.3465 30.326 82.8791 30.7635 82.8791 31.3055C82.8791 31.8424 83.3465 32.2799 83.9232 32.2799Z" fill="black"/>
<path d="M93.4897 33.3637H91.5757L89.8157 39.0363H89.7362L87.9812 33.3637H86.0622L88.7816 41.0001H90.7703L93.4897 33.3637Z" fill="black"/>
<path d="M97.856 41.1492C99.6359 41.1492 100.859 40.2792 101.177 38.9518L99.4967 38.7628C99.2531 39.4091 98.6565 39.7472 97.8809 39.7472C96.7176 39.7472 95.947 38.9816 95.932 37.6741H101.252V37.1222C101.252 34.4425 99.6408 33.2643 97.7616 33.2643C95.5741 33.2643 94.1472 34.8701 94.1472 37.2266C94.1472 39.6229 95.5542 41.1492 97.856 41.1492ZM95.937 36.461C95.9917 35.4866 96.7126 34.6662 97.7864 34.6662C98.8205 34.6662 99.5166 35.4219 99.5265 36.461H95.937Z" fill="black"/>
<path d="M102.774 41.0001H104.574V36.5107C104.574 35.5412 105.305 34.8552 106.294 34.8552C106.597 34.8552 106.975 34.9099 107.129 34.9596V33.304C106.965 33.2742 106.682 33.2543 106.483 33.2543C105.608 33.2543 104.877 33.7515 104.599 34.6364H104.519V33.3637H102.774V41.0001Z" fill="black"/>
<path d="M109.676 43.8637C111.078 43.8637 111.888 43.1428 112.321 41.9248L115.388 33.3736L113.464 33.3637L111.699 39.1307H111.62L109.86 33.3637H107.951L110.72 41.1591L110.566 41.5718C110.233 42.4418 109.706 42.5015 108.92 42.2728L108.503 43.6748C108.746 43.7742 109.184 43.8637 109.676 43.8637Z" fill="black"/>
<defs>
<linearGradient id="paint0_linear" x1="24.4671" y1="10.5" x2="42.875" y2="45.5" gradientUnits="userSpaceOnUse">
<stop stop-color="#62F91F"/>
<stop offset="1" stop-color="#45BD35"/>
</linearGradient>
</defs>
</svg>

<svg width="168" height="56" fill="none" xmlns="http://www.w3.org/2000/svg"><path fill="#fff" d="M0 0h168v56H0z"/><path fill-rule="evenodd" clip-rule="evenodd" d="M49.033 16.826A6.341 6.341 0 0152.25 22.4l-.096 11.168a6.341 6.341 0 01-3.172 5.438L38.98 44.778a6.34 6.34 0 01-6.294.026l-9.72-5.503a6.341 6.341 0 01-3.216-5.573l.096-11.168a6.341 6.341 0 013.171-5.437l10.003-5.774a6.341 6.341 0 016.294-.026l9.72 5.503zm-3.536 8.672c-.526 1.982-2.537 3.171-4.502 2.676l-9.361-2.533a5.87 5.87 0 00-4.526.6 5.966 5.966 0 00-2.777 3.656 6.043 6.043 0 00.599 4.58 5.946 5.946 0 003.63 2.814 5.87 5.87 0 004.526-.6 5.967 5.967 0 002.777-3.655l.327-1.308a.312.312 0 00-.222-.378l-1.572-.425a.313.313 0 00-.385.226l-.32 1.28c-.532 2.003-2.58 3.196-4.564 2.66-1.978-.536-3.153-2.592-2.624-4.589.526-1.982 2.537-3.172 4.503-2.677l9.36 2.534a5.87 5.87 0 004.526-.6 5.966 5.966 0 002.777-3.656 6.043 6.043 0 00-.599-4.58 5.946 5.946 0 00-3.63-2.814 5.87 5.87 0 00-4.526.6 5.966 5.966 0 00-2.777 3.655l-.31 1.034a.312.312 0 00.219.391l1.572.426a.312.312 0 00.381-.212l.31-1.034c.532-2.003 2.58-3.196 4.564-2.66 1.978.536 3.154 2.592 2.624 4.589z" fill="url(#paint0_linear)"/><path d="M69.72 19.254c-.314-2.263-2.054-3.575-4.311-3.575-2.66 0-4.663 1.939-4.663 5.23 0 3.286 1.978 5.23 4.663 5.23 2.421 0 4.027-1.566 4.31-3.51l-1.859-.01c-.234 1.194-1.208 1.865-2.426 1.865-1.65 0-2.834-1.238-2.834-3.575 0-2.297 1.173-3.574 2.839-3.574 1.238 0 2.207.7 2.421 1.919h1.86zM74.66 26.15c2.237 0 3.659-1.577 3.659-3.938 0-2.367-1.422-3.948-3.66-3.948-2.236 0-3.658 1.581-3.658 3.948 0 2.361 1.422 3.937 3.659 3.937zm.01-1.443c-1.238 0-1.845-1.103-1.845-2.5s.607-2.516 1.845-2.516c1.218 0 1.824 1.119 1.824 2.516s-.606 2.5-1.824 2.5zM81.646 21.526c0-1.104.666-1.74 1.616-1.74.93 0 1.486.611 1.486 1.63V26h1.8v-4.862c.005-1.83-1.039-2.874-2.615-2.874-1.143 0-1.929.547-2.277 1.397h-.09v-1.297h-1.72V26h1.8v-4.474zM92.19 18.364h-1.505v-1.83h-1.8v1.83H87.8v1.392h1.084V24c-.01 1.437 1.034 2.143 2.386 2.104a3.621 3.621 0 001.06-.18l-.304-1.407c-.1.025-.303.07-.527.07-.453 0-.816-.159-.816-.885v-3.947h1.507v-1.392zM93.696 26h1.8v-7.636h-1.8V26zm.905-8.72c.572 0 1.039-.438 1.039-.975 0-.541-.467-.979-1.04-.979-.576 0-1.043.438-1.043.98 0 .536.467.974 1.044.974zM99.146 21.526c0-1.104.666-1.74 1.616-1.74.93 0 1.486.611 1.486 1.63V26h1.8v-4.862c.005-1.83-1.039-2.874-2.615-2.874-1.143 0-1.929.547-2.277 1.397h-.09v-1.297h-1.72V26h1.8v-4.474zM110.745 22.788c0 1.164-.83 1.74-1.626 1.74-.865 0-1.442-.611-1.442-1.58v-4.584h-1.799v4.862c0 1.834 1.044 2.873 2.545 2.873 1.144 0 1.949-.601 2.297-1.456h.08V26h1.745v-7.636h-1.8v4.424zM117.726 26.15c2.237 0 3.659-1.577 3.659-3.938 0-2.367-1.422-3.948-3.659-3.948s-3.659 1.581-3.659 3.948c0 2.361 1.422 3.937 3.659 3.937zm.01-1.443c-1.238 0-1.844-1.103-1.844-2.5s.606-2.516 1.844-2.516c1.218 0 1.825 1.119 1.825 2.516s-.607 2.5-1.825 2.5zM127.78 22.788c0 1.164-.83 1.74-1.626 1.74-.865 0-1.441-.611-1.441-1.58v-4.584h-1.8v4.862c0 1.834 1.044 2.873 2.545 2.873 1.144 0 1.949-.601 2.297-1.456h.08V26h1.745v-7.636h-1.8v4.424zM137.466 20.382c-.249-1.293-1.283-2.118-3.072-2.118-1.84 0-3.093.905-3.088 2.317-.005 1.114.681 1.85 2.148 2.153l1.302.273c.701.154 1.03.438 1.03.87 0 .522-.567.915-1.422.915-.826 0-1.363-.358-1.517-1.044l-1.755.169c.224 1.402 1.402 2.232 3.277 2.232 1.909 0 3.256-.99 3.261-2.436-.005-1.089-.706-1.755-2.148-2.068l-1.302-.279c-.776-.174-1.084-.442-1.079-.884-.005-.517.567-.875 1.317-.875.831 0 1.268.452 1.407.954l1.641-.179zM64.454 41c3.103 0 4.942-1.919 4.942-5.1 0-3.173-1.84-5.082-4.872-5.082h-3.52V41h3.45zm-1.605-1.596v-6.99h1.57c2.069 0 3.148 1.154 3.148 3.485 0 2.342-1.08 3.505-3.202 3.505h-1.516zM74.45 41.15c1.78 0 3.003-.87 3.32-2.198l-1.68-.19c-.243.647-.84.985-1.615.985-1.164 0-1.934-.765-1.95-2.073h5.32v-.552c0-2.68-1.61-3.858-3.49-3.858-2.187 0-3.614 1.606-3.614 3.963 0 2.396 1.407 3.922 3.709 3.922zm-1.92-4.689c.055-.974.776-1.795 1.85-1.795 1.034 0 1.73.756 1.74 1.795h-3.59zM81.168 30.818h-1.8V41h1.8V30.818zM83.018 41h1.8v-7.636h-1.8V41zm.905-8.72c.572 0 1.04-.438 1.04-.975 0-.541-.468-.979-1.04-.979-.576 0-1.044.438-1.044.98 0 .536.468.974 1.044.974zM93.49 33.364h-1.914l-1.76 5.672h-.08l-1.755-5.672h-1.919L88.782 41h1.988l2.72-7.636zM97.856 41.15c1.78 0 3.003-.87 3.321-2.198l-1.68-.19c-.244.647-.84.985-1.616.985-1.163 0-1.934-.765-1.949-2.073h5.32v-.552c0-2.68-1.611-3.858-3.49-3.858-2.188 0-3.615 1.606-3.615 3.963 0 2.396 1.407 3.922 3.709 3.922zm-1.919-4.689c.055-.974.776-1.795 1.85-1.795 1.033 0 1.73.756 1.74 1.795h-3.59zM102.774 41h1.8v-4.49c0-.969.731-1.655 1.72-1.655.303 0 .681.055.835.105v-1.656a4.32 4.32 0 00-.646-.05c-.875 0-1.606.498-1.884 1.382h-.08v-1.272h-1.745V41zM109.676 43.864c1.402 0 2.212-.721 2.645-1.94l3.067-8.55-1.924-.01-1.765 5.767h-.079l-1.76-5.767h-1.909l2.769 7.795-.154.413c-.333.87-.86.93-1.646.7l-.417 1.403c.243.1.681.189 1.173.189z" fill="#000"/><defs><linearGradient id="paint0_linear" x1="24.467" y1="10.5" x2="42.875" y2="45.5" gradientUnits="userSpaceOnUse"><stop stop-color="#62F91F"/><stop offset="1" stop-color="#45BD35"/></linearGradient></defs></svg>
